svgs/thin/eye-evil.svg

<svg xmlns="http://www.w3.org/2000/svg" viewBox="0 0 640 512"><!--! Font Awesome Pro 6.3.0 by @fontawesome - https://fontawesome.com License - https://fontawesome.com/license (Commercial License) Copyright 2023 Fonticons, Inc. --><path d="M424 186.1c0-2.896-2.318-8.001-7.973-8.001C408.6 178.1 382.9 216 320 216c-62.54 0-88.63-37.94-96.04-37.94c-5.643 0-7.961 5.11-7.961 8.001c0 4.89 2.946 6.661 15.53 16.24C221.5 218.7 216 236.1 216 256c0 57.34 46.66 104 104 104S424 313.3 424 256c0-19.01-5.529-37.34-15.53-53.7C420.8 192.1 424 191.1 424 186.1zM301.7 230.7C307.7 231.5 313.8 232 320 232c6.152 0 12.22-.5059 18.23-1.258c3.24 6.896 5.736 15.16 5.736 25.29c0 31.97-23.98 47.98-23.98 47.98S295.1 288 295.1 256C295.1 245.9 298.5 237.6 301.7 230.7zM320 344c-48.53 0-88-39.47-88-88c0-15.75 4.284-31.06 12.44-44.72c.001 .0007-.0006 0 0 0c.0024 0-.0024 0 0 0c.4875 0 15.22 10.17 41.31 16.41c-3.76 9.168-5.781 18.47-5.781 28.34c0 36.97 27.48 63.98 40.02 63.98c12.52 0 39.98-27.04 39.98-63.98c0-9.871-2.021-19.17-5.775-28.33c26.12-6.228 40.88-16.42 41.37-16.42c.0024 0-.0023 0 0 0c.0006 0-.001 .0007 0 0C403.7 224.9 408 240.3 408 256C408 304.5 368.5 344 320 344zM621.3 231.9L515 203.2c-3.266-4.344-6.781-8.812-10.58-13.41c11.59-18.34 50.72-80.31 50.75-80.34c2.507-4.028 3.748-8.494 3.748-12.94c0-15.78-13.98-25.12-25.89-25.12c-3.078 0-6.214 .5311-9.29 1.624l-113.6 40.88c-7.922-3.719-16.14-7-24.55-9.75l-41.88-89.09C339.4 5.781 330.3 0 319.1 0S300.6 5.781 296.3 15.03l-41.89 89.13C246 106.9 237.8 110.2 229.9 113.9L116.3 73.03C113.2 71.96 110.1 71.43 106.1 71.43c-11.78 0-25.9 9.29-25.9 25.08c0 4.459 1.248 8.949 3.774 13.01l50.73 80.31C131.1 194.2 128.4 198.7 125 203.2L18.66 231.9C7.5 234.9-.0001 244.5-.0001 256c0 11.47 7.5 21.12 18.63 24.06l106.4 28.72c3.234 4.312 6.75 8.75 10.48 13.31c-55.95 88.42-54.42 84.42-54.42 93.38c0 15.78 13.98 25.12 25.89 25.12c3.078 0 6.214-.5311 9.29-1.624l113.6-40.88c7.922 3.719 16.14 7 24.55 9.75l41.88 89.09C300.6 506.2 309.7 512 319.1 512s19.39-5.781 23.69-15.03l41.89-89.13c8.406-2.75 16.62-6.031 24.55-9.75l113.6 40.88c3.094 1.096 6.241 1.63 9.326 1.63c11.83 0 25.84-9.415 25.84-25.11c0-9.314 .5201-6.569-54.41-93.39c3.734-4.562 7.25-9 10.48-13.31l106.4-28.69c11.16-2.969 18.66-12.62 18.66-24.09S632.5 234.9 621.3 231.9zM617.2 264.6l-111.8 30.16c-8.376 11.38-11.4 14.69-20.75 26.25c.4665 .6997 58.24 90.21 58.24 94.41c0 5.974-5.996 9.12-10.03 9.12c-1.186 0-2.452-.1995-3.778-.6582l-119.9-43.16c-16.81 8.317-25.7 10.96-35.11 13.94l-44.89 95.5c-1.688 3.625-5.441 5.445-9.199 5.445s-7.52-1.82-9.223-5.477l-44.88-95.47c-9.172-2.901-18.17-5.558-35.11-13.94l-119.9 43.16c-1.326 .4587-2.593 .6582-3.782 .6582c-4.193 0-10.05-3.311-10.05-9.137c0-4.45 57.86-93.63 58.36-94.36C145.3 308.9 141.8 304.6 134.5 294.8L22.75 264.6C16.48 262.1 16 257.6 16 256s.4844-6.969 6.781-8.625l111.8-30.16c8.836-12 13.66-17.61 20.89-26.06C90.74 91.14 97.05 97.76 97.05 96.56c0-5.924 5.894-9.138 9.977-9.138c1.2 0 2.483 .2048 3.83 .6758l119.9 43.16c16.81-8.317 25.7-10.96 35.11-13.94l44.89-95.5c1.688-3.625 5.441-5.445 9.199-5.445s7.52 1.82 9.223 5.477l44.88 95.47c9.172 2.901 18.17 5.558 35.11 13.94l119.9-43.16c1.335-.471 2.612-.6758 3.81-.6758c4.158 0 10.02 3.331 10.02 9.146c0 1.213 5.592-4.455-58.41 94.62c7.279 8.444 11.66 13.46 20.91 26.03l111.8 30.16C623.5 249 624 254.4 624 256S623.5 262.1 617.2 264.6z"/></svg>

<svg xmlns="http://www.w3.org/2000/svg" viewBox="0 0 640 512"><!-- Font Awesome Pro 6.0.0-alpha2 by @fontawesome - https://fontawesome.com License - https://fontawesome.com/license (Commercial License) --><path d="M424 186.063C424 183.167 421.683 178.062 416.027 178.062C408.6 178.062 382.945 216 320 216C257.464 216 231.372 178.062 223.961 178.062C218.318 178.062 216 183.173 216 186.063C216 190.954 218.946 192.724 231.525 202.303C221.529 218.662 216 236.99 216 256C216 313.344 262.656 360 320 360S424 313.344 424 256C424 236.99 418.471 218.662 408.475 202.303C420.756 192.952 424 191.094 424 186.063ZM301.707 230.738C307.734 231.494 313.826 232 320 232C326.152 232 332.225 231.494 338.232 230.742C341.473 237.639 343.969 245.906 343.969 256.031C343.969 288 319.969 304.031 319.969 304.031S295.969 288 295.969 256.031C295.969 245.904 298.467 237.639 301.707 230.738ZM320 344C271.469 344 232 304.531 232 256C232 240.25 236.281 224.938 244.438 211.281C244.439 211.282 244.439 211.282 244.44 211.282C244.442 211.282 244.442 211.278 244.445 211.278C244.932 211.278 259.659 221.449 285.75 227.687C281.99 236.855 279.969 246.154 279.969 256.031C279.969 292.997 307.43 320.031 319.969 320.031C332.493 320.031 359.969 292.967 359.969 256.031C359.969 246.16 357.947 236.863 354.193 227.699C380.309 221.471 395.067 211.278 395.555 211.278C395.558 211.278 395.558 211.282 395.56 211.282C395.561 211.282 395.561 211.282 395.562 211.281C403.719 224.938 408 240.25 408 256C408 304.531 368.531 344 320 344ZM621.344 231.906L515 203.219C511.734 198.875 508.219 194.406 504.422 189.812C516.016 171.469 555.141 109.5 555.172 109.469C557.679 105.441 558.919 100.975 558.919 96.531C558.919 80.749 544.944 71.407 533.025 71.407C529.947 71.407 526.811 71.938 523.734 73.031L410.125 113.906C402.203 110.188 393.984 106.906 385.578 104.156L343.703 15.063C339.391 5.781 330.312 0 320 0S300.609 5.781 296.312 15.031L254.422 104.156C246.016 106.906 237.797 110.188 229.875 113.906L116.25 73.031C113.184 71.958 110.058 71.434 106.989 71.434C95.207 71.434 81.086 80.725 81.086 96.519C81.086 100.978 82.334 105.468 84.859 109.531C84.859 109.531 124 171.5 135.594 189.844C131.953 194.219 128.422 198.656 125 203.219L18.656 231.906C7.5 234.875 0 244.531 0 256S7.5 277.125 18.625 280.062L125.016 308.781C128.25 313.094 131.766 317.531 135.5 322.094C79.553 410.518 81.08 406.515 81.08 415.469C81.08 431.251 95.056 440.593 106.975 440.593C110.053 440.593 113.189 440.062 116.266 438.969L229.875 398.094C237.797 401.812 246.016 405.094 254.422 407.844L296.297 496.937C300.609 506.219 309.688 512 320 512S339.391 506.219 343.688 496.969L385.578 407.844C393.984 405.094 402.203 401.812 410.125 398.094L523.75 438.969C526.844 440.065 529.991 440.598 533.076 440.598C544.908 440.598 558.914 431.184 558.914 415.487C558.914 406.173 559.434 408.918 504.5 322.094C508.234 317.531 511.75 313.094 514.984 308.781L621.344 280.094C632.5 277.125 640 267.469 640 256S632.5 234.875 621.344 231.906ZM617.219 264.625L505.453 294.781C497.077 306.16 494.055 309.467 484.703 321.031C485.17 321.731 542.947 411.24 542.947 415.444C542.947 421.418 536.952 424.564 532.918 424.564C531.732 424.564 530.466 424.365 529.141 423.906L409.203 380.75C392.396 389.067 383.503 391.712 374.094 394.688L329.203 490.188C327.516 493.812 323.762 495.633 320.004 495.633S312.484 493.812 310.781 490.156L265.906 394.688C256.735 391.787 247.731 389.13 230.797 380.75L110.875 423.906C109.549 424.365 108.282 424.564 107.093 424.564C102.9 424.564 97.044 421.254 97.044 415.427C97.044 410.977 154.901 321.795 155.406 321.062C145.332 308.876 141.768 304.592 134.547 294.781L22.75 264.594C16.484 262.969 16 257.594 16 256S16.484 249.031 22.781 247.375L134.547 217.219C143.382 205.216 148.207 199.612 155.438 191.156C90.742 91.145 97.053 97.761 97.053 96.556C97.053 90.631 102.947 87.418 107.03 87.418C108.23 87.418 109.513 87.623 110.859 88.094L230.797 131.25C247.604 122.933 256.497 120.288 265.906 117.312L310.797 21.812C312.484 18.187 316.238 16.367 319.996 16.367S327.516 18.187 329.219 21.844L374.094 117.312C383.265 120.213 392.269 122.87 409.203 131.25L529.125 88.094C530.46 87.623 531.737 87.418 532.935 87.418C537.093 87.418 542.956 90.749 542.956 96.564C542.956 97.778 548.548 92.109 484.547 191.188C491.826 199.631 496.202 204.652 505.453 217.219L617.219 247.375L617.25 247.406C623.516 249.031 624 254.406 624 256S623.516 262.969 617.219 264.625Z "></path></svg>
